resources/icons/16px/inbox-filtered.svg

<?xml version="1.0" encoding="UTF-8"?>
<svg width="16px" height="16px" viewBox="0 0 16 16" version="1.1" xmlns="http://www.w3.org/2000/svg" xmlns:xlink="http://www.w3.org/1999/xlink">
    <!-- Generator: Sketch 52.6 (67491) - http://www.bohemiancoding.com/sketch -->
    <title>Artboard</title>
    <desc>Created with Sketch.</desc>
    <g id="Artboard" stroke="none" stroke-width="1" fill="none" fill-rule="evenodd">
        <g id="inbox-filtered" fill="#000000" fill-rule="nonzero">
            <path d="M6.43195939,2 C6.52582896,2.14045907 6.63407612,2.27250324 6.75578644,2.39421356 L8.42012141,4 L3.66,4 L1.95,8 L4,8 C4.55,8 5,8.45 5,9 L5,10 L10.178833,10 L11.5574036,10 C12.2501943,10 12.9201544,9.73827274 13.3942136,9.26421356 L13.4967908,9.16163634 L14.3465871,8.02166568 C14.7479368,7.55592157 14.97,6.96544317 14.97,6.34 L14.97,5.05831731 L16,7.46 L16,13 C16,13.55 15.55,14 15,14 L1,14 C0.45,14 0,13.55 0,13 L0,7.46 L2.08,2.61 C2.23,2.25 2.59,2 3,2 L6.43195939,2 Z M15.48,-8.8817842e-15 C15.79,-8.8817842e-15 16,0.26 16,0.57 C16,0.73 15.94,0.87 15.83,0.98 L12.97,3.71 L12.97,6.34 C12.97,6.5 12.91,6.64 12.8,6.75 L11.98,7.85 C11.88,7.95 11.73,8.02 11.57,8.02 C11.26,8.02 11,7.76 11,7.45 L11,3.71 L8.17,0.98 C8.06,0.87 8,0.73 8,0.57 C8,0.26 8.26,-8.8817842e-15 8.57,-8.8817842e-15 L15.48,-8.8817842e-15 Z" id="inbox-fiiltered"></path>
        </g>
    </g>
</svg>

<svg xmlns="http://www.w3.org/2000/svg" viewBox="0 0 16 16">
  <path d="M6.432 2q.141.211.324.394L8.42 4H3.66L1.95 8H4c.55 0 1 .45 1 1v1h6.557c.693 0 1.363-.262 1.837-.736l.103-.102.85-1.14a2.56 2.56 0 0 0 .623-1.682V5.058L16 7.46V13c0 .55-.45 1-1 1H1c-.55 0-1-.45-1-1V7.46l2.08-4.85C2.23 2.25 2.59 2 3 2zm9.048-2c.31 0 .52.26.52.57 0 .16-.06.3-.17.41l-2.86 2.73v2.63c0 .16-.06.3-.17.41l-.82 1.1c-.1.1-.25.17-.41.17-.31 0-.57-.26-.57-.57V3.71L8.17.98A.57.57 0 0 1 8 .57c0-.31.26-.57.57-.57z"/>
</svg>
